X: 1
T: The Heather Breeze
R: reel
M: 4/4
L: 1/8
K: Gmaj
DGBG dGBG|DFAF cFAF|DGBG dGBG|BdcA BGGE|
DGBG dGBG|DFAF cFAF|DGBG dGBG|BdcA BGGd||
g2 gf gbag|fdde fgaf|g2 gf gbag|fdcA BGGd|
g2 gf gbag|fdde fgaf|g2 gf gbag|fdcA BGGF||


Tune 411	Setting 24949

